!!!COM:	Johannes Ockeghem
!!!CDT:	~1425-1497/02/06
!!!OPR:	Missa Fors seulement
!!!ONM:	1
!!!OTL:	Kyrie
!!!AGN:	Mass; Kyrie
!!!SCT:	Ock1007a
!!!SCA:	Ock1007a
!!!voices:	5
!!!voices-OPR:	5
**kern	**kern	**kern	**kern	**kern
*staff5	*staff4	*staff3	*staff2	*staff1
*Ivox	*Ivox	*Ivox	*Ivox	*Ivox
*I"Bassus2	*I"Bassus1	*I"Tenor	*I"Contratenor	*I"Discantus
*I'B2	*I'B1	*I'T	*I'Ct	*I'D
*>[A,B,C]	*>[A,B,C]	*>[A,B,C]	*>[A,B,C]	*>[A,B,C]
*>A	*>A	*>A	*>A	*>A
*clefF4	*clefF4	*clefGv2	*clefGv2	*clefG2
*k[]	*k[]	*k[]	*k[]	*k[]
*M2/1	*M2/1	*M2/1	*M2/1	*M2/1
*met(C)	*met(C)	*met(C)	*met(C)	*met(C)
!!section: Kyrie I
!!!OMD: Kyrie I
!!incipit: 6
=1-	=1-	=1-	=1-	=1-
0r	0D	0r	0d	0r
=2	=2	=2	=2	=2
0r	1D	0r	1d	0a
.	1D	.	1d	.
=3	=3	=3	=3	=3
0r	0D	0r	1.d	1a
.	.	.	.	1a
.	.	.	4c\	.
.	.	.	4B\	.
=4	=4	=4	=4	=4
0r	0F	0r	1A	1.a
.	.	.	1A	.
.	.	.	.	4g/
.	.	.	.	4f/
=5	=5	=5	=5	=5
0r	0A	0r	0c	1e
.	.	.	.	1e
=6	=6	=6	=6	=6
0r	1.G	0r	1.B-i	0g
.	2E\	.	2G/	.
=7	=7	=7	=7	=7
0r	1.D	0r	1B-i	1.f
.	.	.	[1A	.
.	4C/	.	.	4e/
.	4BB/	.	.	4d/
=8	=8	=8	=8	=8
0r	1AA	0r	2A/]	1f
.	.	.	2G/	.
.	[1C	.	[1G	[1e
=9	=9	=9	=9	=9
0r	1C]	0r	1G]	2e/]
.	.	.	.	2d/
.	1D	.	1F	[1d
=10	=10	=10	=10	=10
0r	0E	0r	0G	1d]
.	.	.	.	1c#i
=11	=11	=11	=11	=11
1DD	2.D\	0A	1A	1d
.	8C/L	.	.	.
.	8BB/J	.	.	.
2.FF/	1AA	.	1F	2r
.	.	.	.	2d/
8EE/L	.	.	.	.
8DD/J	.	.	.	.
=12	=12	=12	=12	=12
2CC/	1r	1A	2E/	2e/
2DD/	.	.	2D/	2f/
2CC/	1AA	1A	2r	2e/
[2DD/	.	.	2D/	[2f/
=13	=13	=13	=13	=13
2DD/]	1AA	1.A	1F	4f/]
.	.	.	.	4d/
1FF	.	.	.	2c/
.	1D	.	2A/	2d/
2GG/	.	4G/	2B\	2B/
.	.	4F/	.	.
=14	=14	=14	=14	=14
4AA/	2C/	1E	1.c	1A
4BB/	.	.	.	.
4C/	2AA/	.	.	.
4D\	.	.	.	.
4E\	2.C/	1r	.	2r
2AA/	.	.	.	.
.	.	.	2A/	2a/
8GG/L	4D\	.	.	.
8FF/J	.	.	.	.
=15	=15	=15	=15	=15
1EE	1.E	1G	2r	2g/
.	.	.	2B\	1e
1AA	.	1A	1c	.
.	2C/	.	.	2f/
=16	=16	=16	=16	=16
1GG	2BB/	1B	4d\	2g/
.	.	.	4c\	.
.	2D\	.	4B\	2d/
.	.	.	4A/	.
2r	2r	1c	1G	1e
2EE/	2GG/	.	.	.
=17	=17	=17	=17	=17
2DD/	1D	1.d	2A/	2f/
1GG	.	.	1B	1g
.	2BB/	.	.	.
2AA/	2AA/	2c\	2c\	2e/
=18	=18	=18	=18	=18
2BB/	2D\	2B\	2d\	2d/
2.C/	2AA/	2A/	2.c\	2.e/
.	1E	1G	.	.
4D\	.	.	4B\	4c/
2E\	.	.	2G/	2B/
=19	=19	=19	=19	=19
2.F\	2r	1r	2.A/	1A
.	2.A\	.	.	.
4E\	.	.	4F/	.
2C/	.	1A	2E/	1r
.	4G\	.	.	.
2D\	2F\	.	2D/	.
=20	=20	=20	=20	=20
2AA/	2C/	1F	1.A	1A
2D\	1F	.	.	.
2r	.	1D	.	2d/
2BB/	2D\	.	2G/	2B/
=21	=21	=21	=21	=21
2AA/	2C/	0E	2A/	2c/
2GG/	2BB/	.	2B\	2d/
1AA	2C/	.	[1A	2r
.	[2AA/	.	.	2c/
=22	=22	=22	=22	=22
1DD	2AA/]	1D	1A]	2d/
.	1D	.	.	1f
1r	.	1A	2r	.
.	2C/	.	2c\	2e/
=23	=23	=23	=23	=23
1DD	1D	1B	2B\	2d/
.	.	.	2d\	2f/
1AA	2E\	1c	2c\	2e/
.	[2F\	.	2A/	[2a/
=24	=24	=24	=24	=24
1BB-i	2F\]	1d	2r	4a/]
.	.	.	.	4g/
.	2G\	.	2.d\	4g/
.	.	.	.	4f/
1AA	2r	1e	.	1a
.	.	.	4c\	.
.	2C/	.	4c\	.
.	.	.	4B\	.
=25	=25	=25	=25	=25
1r	2BB/	0g	0d	1d
.	2.D\	.	.	.
[1DD	.	.	.	[1a
.	4C/	.	.	.
.	2AA/	.	.	.
=26	=26	=26	=26	=26
1DD]	1A	1f	1d	2a/]
.	.	.	.	2f/
1EE	2.G\	1e	1c	[1g
.	4F\	.	.	.
=27	=27	=27	=27	=27
0GG	1D	1.d	0B	2g/]
.	.	.	.	2f/
.	2.G\	.	.	1d
.	.	4c\	.	.
.	4F\	4B\	.	.
=28	=28	=28	=28	=28
[0AAl	4E\	[0cl	[0Al	2.c/
.	4D\	.	.	.
.	1C	.	.	.
.	.	.	.	4d/
.	.	.	.	2e/
.	2D\	.	.	2f/
=29	=29	=29	=29	=29
0AA]	0El	0c]	0A]	0el
!!LO:LB:i:g=z
=30||	=30||	=30||	=30||	=30||
*>B	*>B	*>B	*>B	*>B
*clefF4	*clefF4	*clefGv2	*clefGv2	*clefG2
*k[]	*k[]	*k[]	*k[]	*k[]
*M2/1	*M2/1	*M2/1	*M2/1	*M2/1
*met(C)	*met(C)	*met(C)	*met(C)	*met(C)
!!section: Christe
!!!OMD: Christe
0r	2.A\	2.c\	0r	1a
.	4B\	4d\	.	.
.	2c\	2e\	.	2g/
.	[2F\	[2f\	.	[2a/
=31	=31	=31	=31	=31
0r	2F\]	2f\]	0r	2a/]
.	2G\	1d	.	4g/
.	.	.	.	4f/
.	1A	.	.	1e
.	.	2c#i\	.	.
=32	=32	=32	=32	=32
1D	2r	1d	1A	1d
.	2F\	.	.	.
2GG/	2G\	1r	2B-\	1r
[2D\	2F\	.	[2A/	.
=33	=33	=33	=33	=33
4D\]	1D	0r	2A/]	0r
4C/	.	.	.	.
2BB/	.	.	2G/	.
2AA/	1C	.	2F/	.
2C/	.	.	2E/	.
=34	=34	=34	=34	=34
4BB/	1D	0r	1F	0r
4AA/	.	.	.	.
1D	.	.	.	.
.	1AA	.	1E	.
2C#i/	.	.	.	.
=35	=35	=35	=35	=35
1D	2.A\	1r	1D	1f
.	4F\	.	.	.
2C/	2E\	1c	1r	2g/
2AA/	[2F\	.	.	[2a/
=36	=36	=36	=36	=36
1D	4F\]	1d	1A	2a/]
.	4D\	.	.	.
.	2F\	.	.	2f/
1C	2E\	1e	1c	2.g/
.	2C/	.	.	.
.	.	.	.	4e/
=37	=37	=37	=37	=37
2BB-/	2D\	1.f	2r	2d/
2AA/	1F	.	2c\	2c/
2BB-i/	.	.	1B-i	1d
2GG/	2G\	4e\	.	.
.	.	4d\	.	.
=38	=38	=38	=38	=38
2AA/	2E\	0c	1A	2r
2FF/	2AA/	.	.	2f/
2EE/	2r	.	2G/	2g/
[2FF/	[2AA/	.	[2A/	[2f/
=39	=39	=39	=39	=39
2FF/]	2AA/]	1c	2A/]	2f/]
2GG/	2BB/	.	4G/	4e/
.	.	.	4F/	4d/
1AA	1C	1c	2E/	2c/
.	.	.	2A/	[2f/
=40	=40	=40	=40	=40
1BB-i	1D	0d	2F/	2f/]
.	.	.	2.G/	1d
1GG	1G	.	.	.
.	.	.	4A/	.
.	.	.	2B-i\	[2g/
=41	=41	=41	=41	=41
0C	1C	0e	2.c\	4g/]
.	.	.	.	4f/
.	.	.	.	4e/
.	.	.	8B-i/L	4d/
.	.	.	8A/J	.
.	1E	.	2G/	1c
.	.	.	[2A/	.
=42	=42	=42	=42	=42
1BB-i	2F\	1d	2A/]	2r
.	2D\	.	4G/	2d/
.	.	.	4F/	.
1AA	2r	1c	1A	2f/
.	2AA/	.	.	[2e/
=43	=43	=43	=43	=43
2GG/	2BB/	0B	1r	4e/]
.	.	.	.	4f/
1EE	2GG/	.	.	1g
.	1BB	.	1e	.
2GG/	.	.	.	2g/
=44	=44	=44	=44	=44
2FF/	2C/	[0Al	1f	2.a/
2DD/	2D\	.	.	.
.	.	.	.	4g/
2r	2C/	.	2e\	2e/
[2DD/	[2D\	.	2d\	[2f/
=45	=45	=45	=45	=45
2DD/]	2D\]	0A_	2A/	2f/]
2CC/	2E\	.	2c\	2e/
1DD	1F	.	4F/	1d
.	.	.	4G/	.
.	.	.	4A/	.
.	.	.	4B\	.
=46	=46	=46	=46	=46
0AAl	0El	0A]	0cl	0el
!!LO:LB:i:g=z
=47||	=47||	=47||	=47||	=47||
*>C	*>C	*>C	*>C	*>C
*clefF4	*clefF4	*clefGv2	*clefGv2	*clefG2
*k[]	*k[]	*k[]	*k[]	*k[]
*M2/1	*M2/1	*M2/1	*M2/1	*M2/1
*met(C)	*met(C)	*met(C)	*met(C)	*met(C)
!!section: Kyrie II
!!!OMD: Kyrie II
2.FF/	0F	0r	0A	0r
4GG/	.	.	.	.
2AA/	.	.	.	.
2BB/	.	.	.	.
=48	=48	=48	=48	=48
1C	1E	0r	1G	0r
1D	1D	.	1F	.
=49	=49	=49	=49	=49
1AA	1C	0r	2.E/	0r
.	.	.	4F/	.
2BB/	2r	.	2G/	.
2AA/	2C/	.	2A/	.
=50	=50	=50	=50	=50
2GG/	2D\	0r	2B\	0r
2C/	2E\	.	1c	.
2r	2.F\	.	.	.
2FF/	.	.	2A/	.
.	4E\	.	.	.
=51	=51	=51	=51	=51
2EE/	4D\	0r	4B-i\	0r
.	4C/	.	4A/	.
2FF/	1C	.	4G/	.
.	.	.	4F/	.
1GG	.	.	2.E/	.
.	2BB/	.	.	.
.	.	.	4D/	.
=52	=52	=52	=52	=52
1FF	2.C/	0c	1F	1a
.	4D\	.	.	.
1r	2E\	.	2G/	2g/
.	[2F\	.	2F/	[2a/
=53	=53	=53	=53	=53
0r	4F\]	1d	1A	4a/]
.	4E\	.	.	4g/
.	4D\	.	.	4f/
.	4C/	.	.	4e/
.	1BB-i	1d	2r	1f
.	.	.	2B-i\	.
=54	=54	=54	=54	=54
1C	1C	1c	2A/	1e
.	.	.	1c	.
1FF	2r	1A	.	1f
.	2F\	.	4B-i\	.
.	.	.	4A/	.
=55	=55	=55	=55	=55
0GG	2.BB-i/	0B-i	0G	2d/
.	.	.	.	1g
.	4C/	.	.	.
.	2D\	.	.	.
.	2E\	.	.	4f/
.	.	.	.	4e/
=56	=56	=56	=56	=56
1FF	2.F\	1A	0A	2d/
.	.	.	.	1c
.	8E\L	.	.	.
.	8D\J	.	.	.
1AA	1C	1F	.	.
.	.	.	.	2f/
=57	=57	=57	=57	=57
0GG	2r	0G	1.B-	2e/
.	1D	.	.	1d
.	2E\	.	2G/	4c/
.	.	.	.	4B/
=58	=58	=58	=58	=58
2r	1F	1.F	1A	2.d/
1D	.	.	.	.
.	.	.	.	4c/
.	2r	.	2F/	1A
4C/	[2A\	4E/	[2c\	.
4BB/	.	4D/	.	.
=59	=59	=59	=59	=59
2.AA/	2A\]	1C	2c\]	2r
.	4G\	.	4B\	1e
4BB/	4F\	.	4A/	.
1C	2E\	1r	2G/	.
.	2C/	.	2A/	2f/
=60	=60	=60	=60	=60
1C	1E	0c	1G	1g
1FF	2.F\	.	1F	1a
.	8E\L	.	.	.
.	8D\J	.	.	.
=61	=61	=61	=61	=61
1.FF	1C	0A	2.F/	2.f/
.	.	.	4G/	4d/
.	2.F\	.	2A/	2c/
[2BB-i/	.	.	[2D/	[2d/
.	4D\	.	.	.
=62	=62	=62	=62	=62
2BB-/]	2D\	0F	2D/]	2d/]
2C/	2AA/	.	1A	2c/
1D	1D	.	.	2.f/
.	.	.	2B-i\	.
.	.	.	.	4g/
=63	=63	=63	=63	=63
0AA	1C	1.E	1A	2.a/
.	.	.	.	8g/L
.	.	.	.	8f/J
.	1r	.	2c\	2e/
.	.	2F/	2A/	2a/
=64	=64	=64	=64	=64
1BB-i	1D	1G	1d	2r
.	.	.	.	2g/
2FF/	2F\	1A	[1c	2f/
[2C/	2C/	.	.	[2e/
=65	=65	=65	=65	=65
2C/]	2r	2G/	2c\]	4e/]
.	.	.	.	4d/
2FF/	2D\	2F/	2A/	1d
2GG/	2BB/	1E	2B\	.
2AA/	2AA/	.	2c\	2c#i/
=66	=66	=66	=66	=66
2.BB-i/	1D	1r	2.F/	0d
4AA/	.	.	4G/	.
2FF/	2AA/	[1D	2A/	.
[2GG/	[2BB-i/	.	2r	.
=67	=67	=67	=67	=67
2GG/]	2BB-/]	1D]	2G/	2r
2FF/	2AA/	.	2.A/	2.d/
1DD	1D	[1F	.	.
.	.	.	4G/	4c/
.	.	.	4F/	4B/
.	.	.	4E/	4A/
=68	=68	=68	=68	=68
1r	1BB	2F/]	1D	1B
.	.	2G/	.	.
1AA	2AA/	1A	2.E/	1c
.	2C/	.	.	.
.	.	.	4F/	.
=69	=69	=69	=69	=69
1GG	2D\	1B	1G	2r
.	2.E\	.	.	2B/
1AA	.	[1c	2E/	1A
.	4D\	.	.	.
.	4C/	.	[2F/	.
.	4BB/	.	.	.
=70	=70	=70	=70	=70
1FF	2AA/	2c\]	2F/]	2c/
.	2r	2B\	2D/	2d/
1EE	1BB	[1G	[1E	2B/
.	.	.	.	[2e/
=71	=71	=71	=71	=71
1r	2C/	2G/]	2E/]	2e/]
.	2AA/	2A/	2C/	2f/
1EE	1E	2B\	1G	2g/
.	.	2c\	.	2e/
=72	=72	=72	=72	=72
1.DD	2r	1.d	1A	1.f
.	2AA/	.	.	.
.	2BB/	.	2D/	.
2EE/	2C/	4c\	2G/	2e/
.	.	4B\	.	.
=73	=73	=73	=73	=73
2FF/	2D\	2A/	2F/	1d
2GG/	2BB/	2G/	2D/	.
2r	2AA/	1c	1A	2c/
2AA/	2C/	.	.	[2e/
=74	=74	=74	=74	=74
2EE/	2GG/	2B\	2G/	2e/]
2FF/	2AA/	1A	2F/	2c/
1GG	2.BB/	.	1D	1B
.	.	2G#i/	.	.
.	4GG/	.	.	.
=75	=75	=75	=75	=75
0DD	0D	[0Al	0F	[0Al
=76	=76	=76	=76	=76
0AAl	0C#l	0A]	0El	0A]
==	==	==	==	==
*-	*-	*-	*-	*-
!!!RDF**kern: l=long note in original notation
!!!RDF**kern: i=editorial accidental
!!!RDF**kern: V=start of tuplet marker
!!!RDF**kern: Z=end of tuplet marker
!!!ENC:	Chris Gage 06-28-2012
!!!END:	2012/08/16/
!!!EED:	Jesse Rodin
!!!EEV:	2012/08/16/
!!!ONB:	Translated from MusicXML and edited on 2012/08/16/ by Craig Sapp
!!muse2ps: T^@{OPR}^u^@{ONM}{. }@{OTL}^C^@{COM}^i2I150v85,85,85,85,130Q16
